packages/components/src/telekom/icons/weather/thunder-rain/default.svg

<?xml version="1.0" encoding="UTF-8"?>
<svg width="24px" height="24px" viewBox="0 0 24 24" version="1.1" xmlns="http://www.w3.org/2000/svg" xmlns:xlink="http://www.w3.org/1999/xlink">
    <title>icon/weather/thunder-rain/default</title>
    <g id="icon/weather/thunder-rain/default" stroke="none" stroke-width="1" fill="none" fill-rule="evenodd">
        <path d="M13.9975,18.4645 C14.1046111,18.3662778 14.268216,18.4367469 14.285692,18.567046 L14.285,18.6185 L13.6985,22.367 C13.57,23.1865 12.802,23.7465 11.9825,23.6185 C10.7834107,23.4309464 10.3063476,21.9867047 11.1058813,21.1211931 L11.2,21.0275 L13.9975,18.4645 Z M11.762,13.5005 L8.557,18.0005 L11.6685,18.0005 L5.36,23.098 C5.19909091,23.228 4.98694215,23.0584132 5.04549211,22.884882 L5.0715,22.833 L7.332,19.4955 L4.9385,19.4955 L8.265,13.5005 L11.762,13.5005 Z M16.844,11.7695 C16.9354375,11.6859375 17.0739609,11.7436328 17.0924248,11.8528164 L17.0925,11.9025 L16.4405,16.0695 C16.302,16.9575 15.4695,17.5645 14.582,17.4255 C13.2814483,17.2222586 12.7653627,15.6537759 13.6358953,14.7168746 L13.7345,14.619 L16.844,11.7695 Z M13.5115,0.5645 C16.7275,0.5645 19.5605,2.5685 20.661,5.584 C22.548,6.578 23.75,8.555 23.75,10.712 C23.75,13.8297674 21.2890817,16.3794105 18.2202138,16.4963123 L18,16.5005 L17.873,16.5005 L17.8994375,16.4018125 L17.8994375,16.4018125 L17.9225,16.302 L18.127,14.994 C20.411,14.925 22.2495,13.033 22.2495,10.712 C22.2495,9.10408696 21.3482902,7.63021172 19.9361892,6.89904397 L19.7405,6.804 L19.4375,6.666 L19.3365,6.3485 C18.521,3.7865 16.18,2.065 13.5115,2.065 C12.0911875,2.065 10.7218516,2.56553711 9.62431738,3.47968201 L9.4085,3.668 L9.08,3.969 L8.72625,3.84654688 C8.38528125,3.7319375 8.06625,3.647 7.6215,3.647 C6.22,3.647 5.0255,4.5575 4.5875,5.823 C4.4342,6.2661 4.4051,6.65088 4.410776,6.977016 L4.424732,7.283592 L4.424732,7.283592 L4.442,7.551 L4.442,7.551 L4.04409913,7.72959767 C3.74761224,7.86527551 3.52164286,7.98364286 3.237,8.2015 C2.314,8.9075 1.75,10.018 1.75,11.2155 C1.75,13.2367969 3.32851758,14.8934956 5.30729541,14.9950654 L5.5,15 L5.7185,15 L4.907,16.464 C2.2905,16.166 0.25,13.927 0.25,11.2155 C0.25,9.3035 1.282,7.5495 2.917,6.6175 C3.0565,4.128 5.1135,2.146 7.6215,2.146 C7.9905,2.146 8.3585,2.191 8.7215,2.2795 C10.0785,1.1705 11.7635,0.5645 13.5115,0.5645 Z" id="Shape" fill="#262626" fill-rule="nonzero"></path>
    </g>
</svg>

<svg width="24" height="24" xmlns="http://www.w3.org/2000/svg"><path d="M13.998 18.465a.173.173 0 01.288.102l-.001.052-.587 3.748a1.502 1.502 0 01-1.716 1.252c-1.199-.188-1.676-1.632-.876-2.498l.094-.093 2.798-2.563zM11.761 13.5L8.557 18h3.111L5.36 23.098c-.16.13-.373-.04-.315-.213l.027-.052 2.26-3.337H4.939L8.264 13.5h3.497zm5.082-1.731a.15.15 0 01.248.083v.05l-.651 4.167a1.626 1.626 0 01-1.859 1.355c-1.3-.203-1.817-1.771-.946-2.708l.099-.098 3.109-2.85zM13.511.565a7.596 7.596 0 017.15 5.019 5.805 5.805 0 013.089 5.128c0 3.118-2.46 5.667-5.53 5.784l-.22.005h-.127l.026-.1.023-.099.205-1.308c2.284-.069 4.123-1.961 4.123-4.282a4.3 4.3 0 00-2.314-3.813l-.195-.095-.303-.138-.101-.318c-.816-2.561-3.157-4.283-5.825-4.283-1.42 0-2.79.5-3.888 1.415l-.216.188-.328.301-.354-.122c-.34-.115-.66-.2-1.105-.2a3.22 3.22 0 00-3.034 2.176 3.259 3.259 0 00-.176 1.154l.014.307.017.267-.398.179a3.8 3.8 0 00-.807.471 3.798 3.798 0 00-1.487 3.014c0 2.022 1.579 3.678 3.557 3.78L5.5 15h.218l-.811 1.464C2.291 16.166.25 13.927.25 11.216a5.299 5.299 0 012.667-4.598c.14-2.49 2.197-4.472 4.705-4.472.369 0 .736.045 1.1.134a7.558 7.558 0 014.79-1.715z" fill="#000" fill-rule="evenodd"/></svg>
